icons/2_Variations/HMBradley bg.var.svg

<svg width="1024" height="1024" fill="none" xmlns="http://www.w3.org/2000/svg"><g clip-path="url(#a)"><path d="M512 1024c282.77 0 512-229.23 512-512S794.77 0 512 0 0 229.23 0 512s229.23 512 512 512Z" fill="#73ADA4"/><path d="m504.95 490.66-6.42 9.18v-18.86h-20.89v2.92c1.8.61 2.2 7.88 2.28 12.07v55.51h18.6v-43.75c1.36-4.35 6.33-9.36 13.22-9.36h11.18v-16.84h-5.93c-5.23 0-8.39 3.4-12.05 9.13h.01Zm141.81-41.8c2.15.73 2.31 10.92 2.31 14.07v20.63c-3.24-2.97-8.48-4.6-14.68-4.6-19.27 0-34.25 14.01-34.25 39.48 0 22.92 12.98 34.38 29.79 34.38l19.14-7.91v6.57h18.74V445.94h-21.04v2.92h-.01Zm2.31 92.83h-7.2c-17.47 0-23.26-13.27-23.26-29.72s6.49-27.22 17.8-27.22c8.07 0 12.65 6.19 12.65 17.34v39.59l.01.01Zm34.9-92.83c1.89.65 2.24 8.63 2.3 12.67v89.94h18.74V445.93h-21.03v2.92l-.01.01Zm68.02 30.1c-19.08 0-33.3 16.02-33.3 38.68 0 20.76 13.08 35.18 32.62 35.18 1.98 0 3.94-.49 6.03-1.35l19.55-8.26v-3.45s-4.79 1.93-12.79 1.93c-22.23 0-29.1-12.86-28.55-31.48h43.94v-3.34c-.01-16.19-9.45-27.91-27.51-27.91h.01Zm-16.17 26.02c1.08-12.4 5.93-21.3 14.83-21.3s12.13 8.63 12.13 21.3h-26.96Zm-175.68-26.04c-17.23 0-28.45 6.64-28.45 17.83v1.61h16.77v-4.04c0-6.47 3.57-10.65 10.04-10.65 7.01 0 9.08 4.85 9.08 12.54v11.21l-20.35 7.41c-10.11 3.77-18.47 8.73-18.47 20.33 0 10.79 8.58 17.66 18.06 17.66l2.22-.05 18.66-7.82v6.52h18.65l-.16-50.68c0-15.77-8.8-21.86-26.05-21.86v-.01Zm7.45 62.76h-9c-8.3 0-11.76-4.63-11.76-11.64 0-7.55 3.51-10.53 9.16-12.68l11.59-4.72v29.05l.01-.01Zm270.84-61.65v2.85c4.1.79 5.98 5.67 2.77 14.5l-14.43 35.32-17.81-42.66c-1.76-4.62-2.68-7.02-3.31-10.02h-23.43v2.92c2.47 1.24 4.6 3.3 8.58 11.37l27.05 60.19-2.17 5.31c-.65 1.31-2.28 2.79-4.81 2.79l-19.36.09.07 15.35h10.26c8.6 0 12.97-5.08 15.85-11.09l30.84-72.3c1.93-4.84 4.36-9.71 6.36-11.35v-3.27h-16.46Zm-399.21 22.18c-.28-.02-.29-.41-.02-.46 11.93-2.03 22.98-9.48 22.98-21.94 0-15.48-11.8-22.9-32.55-22.9h-82.12c-.47 3.32-1.32 5.61-2.24 8.46l-21.11 57.19-21.21-57.44c-.95-2.68-2.15-5.46-2.52-8.22h-19.4v2.92c2.24.76 1.7 6.8.89 12.09l-10.03 68.47c-.6 3.88-2.52 4.95-6.09 4.95h-8.56c-3.62 0-5.04-1.59-5.04-4.95v-66.88c.01-3.52.23-12.97 2.31-13.68v-2.92h-21.96v43.2H192v-43.2h-22.1v2.92c2.01.68 2.28 9.62 2.3 13.36v61.98c-.03 3.74-.29 12.68-2.3 13.36v2.92H192v-45.24h40.54v45.24h45.53c0-2.34.33-7.25.74-10.12l8.94-62.21 26.45 72.32h6.85l26.67-72.32s6.31 42.32 8.9 62.21c.74 5.72.79 8.52.79 10.12h23.02v-2.92c-2.17-1.44-3.71-14.07-3.71-14.07-3.39-24.1-9.49-66.6-9.49-66.6-.55-3.34.94-4.86 3.99-4.86h20.5c4.18 0 5.31 1.94 5.31 6.23v65.39c0 5.8-.39 13.65-2.26 13.9v2.92h37.11c23.3 0 35.69-9.16 35.69-25.46.01-13.75-11.67-22.6-28.33-23.8l-.02.04Zm-22.43-39.18h6.47c12.44.15 19.67 5.61 19.67 17.6 0 12.66-6.33 19.14-19.53 19.14h-6.6v-36.74h-.01Zm12.52 82.39h-1.35c-8.08 0-11.18-2.13-11.18-9.4v-30.42h9.29c12.85.12 21.82 8.15 21.82 20.14 0 13.34-6.47 19.67-18.59 19.67l.01.01Z" fill="#fff"/></g><defs><clipPath id="a"><path fill="#fff" d="M0 0h1024v1024H0z"/></clipPath></defs></svg>

<svg width="1024" height="1024" viewBox="0 0 1024 1024" fill="none" xmlns="http://www.w3.org/2000/svg">
<g clip-path="url(#clip0_3_113)">
<path d="M512 1024C794.77 1024 1024 794.77 1024 512C1024 229.23 794.77 0 512 0C229.23 0 0 229.23 0 512C0 794.77 229.23 1024 512 1024Z" fill="#73ADA4"/>
<path d="M504.95 490.66L498.53 499.84V480.98H477.64V483.9C479.44 484.51 479.84 491.78 479.92 495.97V551.48H498.52V507.73C499.88 503.38 504.85 498.37 511.74 498.37H522.92V481.53H516.99C511.76 481.53 508.6 484.93 504.94 490.66H504.95ZM646.76 448.86C648.91 449.59 649.07 459.78 649.07 462.93V483.56C645.83 480.59 640.59 478.96 634.39 478.96C615.12 478.96 600.14 492.97 600.14 518.44C600.14 541.36 613.12 552.82 629.93 552.82L649.07 544.91V551.48H667.81V445.94H646.77V448.86H646.76ZM649.07 541.69H641.87C624.4 541.69 618.61 528.42 618.61 511.97C618.61 495.52 625.1 484.75 636.41 484.75C644.48 484.75 649.06 490.94 649.06 502.09V541.68L649.07 541.69ZM683.97 448.86C685.86 449.51 686.21 457.49 686.27 461.53V551.47H705.01V445.93H683.98V448.85L683.97 448.86ZM751.99 478.96C732.91 478.96 718.69 494.98 718.69 517.64C718.69 538.4 731.77 552.82 751.31 552.82C753.29 552.82 755.25 552.33 757.34 551.47L776.89 543.21V539.76C776.89 539.76 772.1 541.69 764.1 541.69C741.87 541.69 735 528.83 735.55 510.21H779.49V506.87C779.48 490.68 770.04 478.96 751.98 478.96H751.99ZM735.82 504.98C736.9 492.58 741.75 483.68 750.65 483.68C759.55 483.68 762.78 492.31 762.78 504.98H735.82ZM560.14 478.94C542.91 478.94 531.69 485.58 531.69 496.77V498.38H548.46V494.34C548.46 487.87 552.03 483.69 558.5 483.69C565.51 483.69 567.58 488.54 567.58 496.23V507.44L547.23 514.85C537.12 518.62 528.76 523.58 528.76 535.18C528.76 545.97 537.34 552.84 546.82 552.84L549.04 552.79L567.7 544.97V551.49H586.35L586.19 500.81C586.19 485.04 577.39 478.95 560.14 478.95V478.94ZM567.59 541.7H558.59C550.29 541.7 546.83 537.07 546.83 530.06C546.83 522.51 550.34 519.53 555.99 517.38L567.58 512.66V541.71L567.59 541.7ZM838.43 480.05V482.9C842.53 483.69 844.41 488.57 841.2 497.4L826.77 532.72L808.96 490.06C807.2 485.44 806.28 483.04 805.65 480.04H782.22V482.96C784.69 484.2 786.82 486.26 790.8 494.33L817.85 554.52L815.68 559.83C815.03 561.14 813.4 562.62 810.87 562.62L791.51 562.71L791.58 578.06H801.84C810.44 578.06 814.81 572.98 817.69 566.97L848.53 494.67C850.46 489.83 852.89 484.96 854.89 483.32V480.05H838.43ZM439.22 502.23C438.94 502.21 438.93 501.82 439.2 501.77C451.13 499.74 462.18 492.29 462.18 479.83C462.18 464.35 450.38 456.93 429.63 456.93H347.51C347.04 460.25 346.19 462.54 345.27 465.39L324.16 522.58L302.95 465.14C302 462.46 300.8 459.68 300.43 456.92H281.03V459.84C283.27 460.6 282.73 466.64 281.92 471.93L271.89 540.4C271.29 544.28 269.37 545.35 265.8 545.35H257.24C253.62 545.35 252.2 543.76 252.2 540.4V473.52C252.21 470 252.43 460.55 254.51 459.84V456.92H232.55V500.12H192V456.92H169.9V459.84C171.91 460.52 172.18 469.46 172.2 473.2V535.18C172.17 538.92 171.91 547.86 169.9 548.54V551.46H192V506.22H232.54V551.46H278.07C278.07 549.12 278.4 544.21 278.81 541.34L287.75 479.13L314.2 551.45H321.05L347.72 479.13C347.72 479.13 354.03 521.45 356.62 541.34C357.36 547.06 357.41 549.86 357.41 551.46H380.43V548.54C378.26 547.1 376.72 534.47 376.72 534.47C373.33 510.37 367.23 467.87 367.23 467.87C366.68 464.53 368.17 463.01 371.22 463.01H391.72C395.9 463.01 397.03 464.95 397.03 469.24V534.63C397.03 540.43 396.64 548.28 394.77 548.53V551.45H431.88C455.18 551.45 467.57 542.29 467.57 525.99C467.58 512.24 455.9 503.39 439.24 502.19L439.22 502.23ZM416.79 463.05H423.26C435.7 463.2 442.93 468.66 442.93 480.65C442.93 493.31 436.6 499.79 423.4 499.79H416.8V463.05H416.79ZM429.31 545.44H427.96C419.88 545.44 416.78 543.31 416.78 536.04V505.62H426.07C438.92 505.74 447.89 513.77 447.89 525.76C447.89 539.1 441.42 545.43 429.3 545.43L429.31 545.44Z" fill="white"/>
</g>
<defs>
<clipPath id="clip0_3_113">
<rect width="1024" height="1024" fill="white"/>
</clipPath>
</defs>
</svg>
